X:1
T:Title
%%score 1 2 3
L:1/8
M:3/2
K:C
V:1 treble nm="Part_1"
V:2 treble-8 nm="Part_2"
V:3 treble-8 nm="Part_3"
V:1
 G8 A2 B2 | c8 A4 | A4 z4 c4 | c6 B2 G2 A2- | A2 B2 A2 G2 ^F3 E | G4 z4 E2 F2 | G4 F6 E2 | %7
 E4 D6 C2 | E12 :| c4 d6 c2 | c4 B6 A2 | A4 G6 F2 | A4 c6 B2 | G2 A4 A2 G2 F2 | A4 z4 c2 A2 | %15
 _B4 A2 F2 G4 | !fermata!F12 | z12 | A6 B2 c4 | =B4 A6 G2 | G4 F6 E2 | G12 :| G8 B2 c2 | %23
 d6 d2 c2 B2 | d4 z4 c4- | c2 B2 G4 B2 c2 | B4 A8 | G6 F2 A4 | _B4 A6 G2 | G4 F6 E2 | G12 :| %31
 B6 A2 c2 B2 | G2 A4 G2 F2 E2 | !fermata!G12 | z4 z4 B2 c2 | d6 A2 c2 B2 | G4 z4 B2 c2 | B4 A8 | %38
 G6 F2 A4 | B4 A6 G2 | G4 F6 E2 | G12 |] %42
V:2
 G8 c2 d2 | c8 c4 | A4 c8 | e6 d2 B2 c2- | c2 d2 A8 | G8 G2 A2 | B4 A8 | G4 F8 | E12 :| c4 f8 | %10
 e4 d8 | c4 B8 | A4 e6 d2 | B2 c4 A2 B4 | A4 c8 | d4 c2 A2 B4 | !fermata!A12 | z12 | c6 d2 e4 | %19
 d4 c8 | B4 A8 | G12 :| G4 B4 d2 e2 | f6 d2 e4 | d8 e4- | e2 d2 B4 d2 c2 | d4 A8 | B6 A2 c4 | %28
 d4 c8 | B4 A8 | G12 :| B6 c2 e2 d2 | B2 c4 G2 A4 | G12 | z4 z4 d2 e2 | d6 c2 e2 d2 | B8 d2 c2 | %37
 d4 A8 | B6 A2 c4 | d4 c8 | B4 A8 | G12 |] %42
V:3
 d8 e2 ^f2 | g8 e4 | e4 z4 g4 | g6 ^f2 d2 e2- | e2 ^f2 e2 d2 ^c3 B | d4 z4 B2 c2 | d4 c6 B2 | %7
 B4 A6 G2 | B12 :| g4 a6 g2 | g4 ^f6 e2 | e4 d6 c2 | e4 g6 ^f2 | d2 e4 e2 d2 c2 | e4 z4 g2 e2 | %15
 f4 e2 c2 d4 | !fermata!c12 | z12 | e6 ^f2 g4 | ^f4 e6 d2 | d4 c6 B2 | d12 :| d8 ^f2 g2 | %23
 a6 a2 g2 ^f2 | a4 z4 g4- | g2 ^f2 d4 f2 g2 | f4 e8 | d6 c2 e4 | f4 e6 d2 | d4 c6 B2 | d12 :| %31
 ^f6 e2 g2 f2 | d2 e4 d2 c2 B2 | !fermata!d12 | z4 z4 ^f2 g2 | a6 e2 g2 ^f2 | d4 z4 f2 g2 | %37
 ^f4 e8 | d6 c2 e4 | ^f4 e6 d2 | d4 c6 B2 | d12 |] %42

